icons/rows-24.svg

<svg width="24" height="25" viewBox="0 0 24 25" fill="none" xmlns="http://www.w3.org/2000/svg">
<path fill-rule="evenodd" clip-rule="evenodd" d="M22 4.25C22 3.2835 21.2165 2.5 20.25 2.5H3.75C2.7835 2.5 2 3.2835 2 4.25V9.75C2 10.7165 2.7835 11.5 3.75 11.5L20.25 11.5C21.2165 11.5 22 10.7165 22 9.75V4.25ZM20.25 4C20.3881 4 20.5 4.11193 20.5 4.25V9.75C20.5 9.88807 20.3881 10 20.25 10L3.75 10C3.61193 10 3.5 9.88807 3.5 9.75L3.5 4.25C3.5 4.11193 3.61193 4 3.75 4L20.25 4ZM22 15.25C22 14.2835 21.2165 13.5 20.25 13.5L3.75 13.5C2.7835 13.5 2 14.2835 2 15.25V20.75C2 21.7165 2.7835 22.5 3.75 22.5H20.25C21.2165 22.5 22 21.7165 22 20.75V15.25ZM20.25 15C20.3881 15 20.5 15.1119 20.5 15.25V20.75C20.5 20.8881 20.3881 21 20.25 21H3.75C3.61193 21 3.5 20.8881 3.5 20.75L3.5 15.25C3.5 15.1119 3.61193 15 3.75 15L20.25 15Z" fill="black"/>
</svg>

<svg xmlns="http://www.w3.org/2000/svg" width="24" height="25" viewBox="0 0 24 25"><path fill-rule="evenodd" d="M22 4.25a1.75 1.75 0 00-1.75-1.75H3.75A1.75 1.75 0 002 4.25v5.5c0 .966.784 1.75 1.75 1.75h16.5A1.75 1.75 0 0022 9.75v-5.5zM20.25 4a.25.25 0 01.25.25v5.5a.25.25 0 01-.25.25H3.75a.25.25 0 01-.25-.25v-5.5A.25.25 0 013.75 4h16.5zM22 15.25a1.75 1.75 0 00-1.75-1.75H3.75A1.75 1.75 0 002 15.25v5.5c0 .966.784 1.75 1.75 1.75h16.5A1.75 1.75 0 0022 20.75v-5.5zM20.25 15a.25.25 0 01.25.25v5.5a.25.25 0 01-.25.25H3.75a.25.25 0 01-.25-.25v-5.5a.25.25 0 01.25-.25h16.5z"/></svg>
